packages/foundations/icons/Business/Handshake.svg

<svg width="24" height="24" viewBox="0 0 24 24" fill="none" xmlns="http://www.w3.org/2000/svg">
<path fill-rule="evenodd" clip-rule="evenodd" d="M17.8928 9.12168C19.5201 9.12168 20.8393 7.84601 20.8393 6.27239C20.8393 4.69877 19.5201 3.4231 17.8928 3.4231C16.2656 3.4231 14.9464 4.69877 14.9464 6.27239C14.9464 7.84601 16.2656 9.12168 17.8928 9.12168ZM22.7789 19.621C22.7845 19.8197 22.7894 20.0743 22.7935 20.3847C22.8004 20.9763 22.3264 21.4616 21.7347 21.4685L17 21.4686C16.4083 21.4686 15.9286 20.9889 15.9286 20.3972V17.6696C14.2917 18.3027 12.9821 18.6193 12 18.6193C12.4068 18.6193 12.7366 18.3004 12.7366 17.907C12.7366 17.5136 12.4068 17.1947 12 17.1947L11.9 17.1882C11.5405 17.141 11.2634 16.843 11.2634 16.4824C11.2634 16.089 11.5932 15.77 12 15.77C16.4196 15.77 14.9464 10.5463 17.8928 10.0714C21.3642 9.51196 22.5963 13.1645 22.7789 19.621Z" fill="#3D474D"/>
<path fill-rule="evenodd" clip-rule="evenodd" d="M6.10713 9.12168C7.7344 9.12168 9.05356 7.84601 9.05356 6.27239C9.05356 4.69877 7.7344 3.4231 6.10713 3.4231C4.47986 3.4231 3.1607 4.69877 3.1607 6.27239C3.1607 7.84601 4.47986 9.12168 6.10713 9.12168ZM1.22118 19.621C1.21556 19.8197 1.21069 20.0743 1.20656 20.3847C1.19961 20.9763 1.67366 21.4616 2.26535 21.4685L7.00007 21.4686C7.5918 21.4686 8.0715 20.9889 8.0715 20.3972V17.6696C9.70405 18.3011 11.011 18.6176 11.9922 18.6193C12.3983 18.6185 12.7281 18.2996 12.7281 17.9062C12.7281 17.5128 12.3983 17.1939 11.9915 17.1939C11.5847 17.1939 11.2549 16.8749 11.2549 16.4815C11.2549 16.0914 11.5792 15.7745 11.9814 15.7693L12 15.77C7.58034 15.77 9.05364 10.5463 6.10721 10.0714C2.63584 9.51196 1.4038 13.1645 1.22118 19.621Z" fill="#3D474D"/>
</svg>

<svg width="24" height="24" fill="none" xmlns="http://www.w3.org/2000/svg"><path fill-rule="evenodd" clip-rule="evenodd" d="M17.893 9.122c1.627 0 2.946-1.276 2.946-2.85 0-1.573-1.319-2.849-2.946-2.849-1.627 0-2.947 1.276-2.947 2.85 0 1.573 1.32 2.849 2.947 2.849zm4.886 10.499c.006.199.01.453.015.764a1.071 1.071 0 01-1.06 1.083H17c-.592 0-1.071-.48-1.071-1.07V17.67c-1.637.633-2.947.95-3.929.95a.725.725 0 00.737-.713.725.725 0 00-.737-.712l-.1-.007a.72.72 0 01-.637-.706c0-.393.33-.712.737-.712 4.42 0 2.946-5.224 5.893-5.699 3.471-.559 4.703 3.094 4.886 9.55z" fill="#3D474D"/><path fill-rule="evenodd" clip-rule="evenodd" d="M6.107 9.122c1.627 0 2.947-1.276 2.947-2.85 0-1.573-1.32-2.849-2.947-2.849S3.161 4.7 3.161 6.273c0 1.573 1.319 2.849 2.946 2.849zM1.221 19.62c-.005.199-.01.453-.014.764a1.071 1.071 0 001.058 1.083H7c.592 0 1.072-.48 1.072-1.07V17.67c1.632.631 2.939.948 3.92.95.406-.002.736-.32.736-.714a.725.725 0 00-.736-.712.725.725 0 01-.737-.712c0-.39.324-.707.726-.713l.019.001c-4.42 0-2.946-5.224-5.893-5.699-3.471-.559-4.703 3.094-4.886 9.55z" fill="#3D474D"/></svg>
